packages/core/src/svgs/yfi.svg

<svg width="24" height="24" viewBox="0 0 24 24" fill="none" xmlns="http://www.w3.org/2000/svg">
<g clip-path="url(#clip0_31_21128)">
<path d="M0 0H24V24H0V0Z" fill="#006AE3"/>
<path d="M11.5715 6.85693H12.8572V17.5712H11.5715V6.85693Z" fill="white"/>
<path d="M8.05591 7.55157C8.05591 9.397 8.84277 10.276 10.7143 11.5746V10.2229C9.67462 9.39828 9.19891 8.74685 9.19891 7.53742C9.19891 5.88657 10.5489 4.54857 12.2143 4.54857C13.8798 4.54857 15.2298 5.88657 15.2298 7.53742C15.2304 8.07832 15.0826 8.60902 14.8025 9.07171L14.3568 7.19328L13.2065 7.46157L14.1172 11.2077L17.8543 10.2151L17.5488 9.08371L15.8816 9.52643C16.1988 8.94871 16.3745 8.27971 16.3745 7.55157C16.3745 5.27457 14.5123 3.42871 12.2152 3.42871C9.91805 3.42871 8.05591 5.27457 8.05591 7.55157ZM16.3736 16.4487C16.3736 14.6033 15.5816 13.711 13.7101 12.4129V13.7641C14.7498 14.5887 15.2306 15.253 15.2306 16.4629C15.2306 18.1137 13.8806 19.4517 12.2152 19.4517C10.5498 19.4517 9.19977 18.1137 9.19977 16.4629C9.19977 15.9019 9.35534 15.3773 9.62662 14.9286L10.0723 16.807L11.2226 16.5387L10.3123 12.7926L6.5752 13.7851L6.88077 14.9166L8.54791 14.4739C8.23034 15.0516 8.05505 15.7206 8.05505 16.4487C8.05505 18.7257 9.9172 20.5716 12.2143 20.5716C14.5115 20.5716 16.3736 18.7257 16.3736 16.4487Z" fill="white"/>
</g>
<defs>
<clipPath id="clip0_31_21128">
<rect width="24" height="24" fill="white"/>
</clipPath>
</defs>
</svg>

<svg xmlns="http://www.w3.org/2000/svg" width="24" height="24" fill="none" viewBox="0 0 24 24"><g clip-path="url(#a)"><path fill="#006AE3" d="M0 0h24v24H0z"/><path fill="#fff" d="M11.572 6.857h1.285V17.57h-1.285z"/><path fill="#fff" d="M8.056 7.552c0 1.845.787 2.724 2.658 4.023v-1.352C9.674 9.398 9.2 8.747 9.2 7.537c0-1.65 1.35-2.988 3.015-2.988s3.016 1.338 3.016 2.988c0 .541-.147 1.072-.428 1.535l-.445-1.879-1.15.269.91 3.746 3.737-.993-.305-1.131-1.667.442a4.1 4.1 0 0 0 .493-1.974c0-2.277-1.863-4.123-4.16-4.123s-4.16 1.846-4.16 4.123m8.318 8.897c0-1.846-.792-2.738-2.664-4.036v1.351c1.04.825 1.52 1.489 1.52 2.699 0 1.65-1.35 2.989-3.015 2.989S9.2 18.114 9.2 16.462c0-.56.155-1.085.427-1.533l.445 1.878 1.15-.268-.91-3.746-3.737.992.306 1.132 1.667-.443a4.1 4.1 0 0 0-.493 1.975c0 2.277 1.862 4.123 4.16 4.123s4.159-1.846 4.159-4.123"/></g><defs><clipPath id="a"><path fill="#fff" d="M0 0h24v24H0z"/></clipPath></defs></svg>
